symbolic/64x64/apps/typecatcher.svg

<svg xmlns="http://www.w3.org/2000/svg" width="64" height="64" version="1.1">
 <path style="opacity:.2" d="m32 13c-7.766 0-14.38 4.611-17.227 11.136-7.229 1.042-12.773 7.018-12.773 14.318 0 8.034 6.7158 14.546 15 14.546h31.876c7.248 0 13.124-5.698 13.124-12.728 0-6.532-5.066-11.886-11.602-12.612-1.704-8.341-9.298-14.66-18.398-14.66z"/>
 <path style="fill:#e4e4e4" d="m32 12c-7.766 0-14.38 4.611-17.227 11.136-7.229 1.042-12.773 7.018-12.773 14.318 0 8.034 6.7158 14.546 15 14.546h31.876c7.248 0 13.124-5.698 13.124-12.728 0-6.532-5.066-11.886-11.602-12.612-1.704-8.341-9.298-14.66-18.398-14.66z"/>
 <path style="opacity:.5" d="m28 24h8.0001c4 0 4 4 4 4v16h-4v-6h-8.0001v6h-4v-16c0-4 4-4 4-4zm0 4v6h8.0001v-6z"/>
 <path style="opacity:.2;fill:#ffffff" d="m32 12c-7.766 0-14.38 4.611-17.227 11.137-7.229 1.042-12.773 7.016-12.773 14.316 0 0.161 0.0201 0.317 0.0254 0.477 0.2597-7.059 5.6936-12.777 12.748-13.793 2.847-6.526 9.461-11.137 17.227-11.137 9.1 0 16.694 6.32 18.398 14.66 6.361 0.707 11.314 5.799 11.577 12.092 0.006-0.161 0.025-0.318 0.025-0.481 0-6.532-5.066-11.885-11.602-12.611-1.704-8.34-9.298-14.66-18.398-14.66z"/>
</svg>

<svg xmlns="http://www.w3.org/2000/svg" width="64" height="64"><path style="opacity:.2" d="M32 13c-7.766 0-14.38 4.611-17.227 11.136C7.544 25.178 2 31.154 2 38.454 2 46.488 8.716 53 17 53h31.876C56.124 53 62 47.302 62 40.272c0-6.532-5.066-11.886-11.602-12.612C48.694 19.319 41.1 13 32 13z"/><path style="fill:#e4e4e4" d="M32 12c-7.766 0-14.38 4.611-17.227 11.136C7.544 24.178 2 30.154 2 37.454 2 45.488 8.716 52 17 52h31.876C56.124 52 62 46.302 62 39.272c0-6.532-5.066-11.886-11.602-12.612C48.694 18.319 41.1 12 32 12z"/><path style="opacity:.5" d="M28 24h8c4 0 4 4 4 4v16h-4v-6h-8v6h-4V28c0-4 4-4 4-4zm0 4v6h8v-6z"/><path style="opacity:.2;fill:#fff" d="M32 12c-7.766 0-14.38 4.611-17.227 11.137C7.544 24.179 2 30.153 2 37.453c0 .161.02.317.025.477.26-7.059 5.694-12.777 12.748-13.793C17.62 17.611 24.234 13 32 13c9.1 0 16.694 6.32 18.398 14.66 6.361.707 11.314 5.799 11.577 12.092.006-.161.025-.318.025-.481 0-6.532-5.066-11.885-11.602-12.611C48.694 18.32 41.1 12 32 12z"/></svg>
